Numix/32x32/categories/applications-astronomy.svg

<?xml version="1.0" encoding="UTF-8" standalone="no"?>
<svg
   xmlns:dc="http://purl.org/dc/elements/1.1/"
   xmlns:cc="http://creativecommons.org/ns#"
   xmlns:rdf="http://www.w3.org/1999/02/22-rdf-syntax-ns#"
   xmlns:svg="http://www.w3.org/2000/svg"
   xmlns="http://www.w3.org/2000/svg"
   xmlns:sodipodi="http://sodipodi.sourceforge.net/DTD/sodipodi-0.dtd"
   xmlns:inkscape="http://www.inkscape.org/namespaces/inkscape"
   width="32"
   height="32"
   viewBox="0 0 32 32"
   id="svg2"
   version="1.1"
   inkscape:version="0.91 r"
   sodipodi:docname="applications-astronomy.svg">
  <metadata
     id="metadata24">
    <rdf:RDF>
      <cc:Work
         rdf:about="">
        <dc:format>image/svg+xml</dc:format>
        <dc:type
           rdf:resource="http://purl.org/dc/dcmitype/StillImage" />
      </cc:Work>
    </rdf:RDF>
  </metadata>
  <defs
     id="defs22" />
  <sodipodi:namedview
     pagecolor="#ffffff"
     bordercolor="#666666"
     borderopacity="1"
     objecttolerance="10"
     gridtolerance="10"
     guidetolerance="10"
     inkscape:pageopacity="0"
     inkscape:pageshadow="2"
     inkscape:window-width="1920"
     inkscape:window-height="1056"
     id="namedview20"
     showgrid="false"
     inkscape:zoom="7.375"
     inkscape:cx="16"
     inkscape:cy="16"
     inkscape:window-x="0"
     inkscape:window-y="24"
     inkscape:window-maximized="1"
     inkscape:current-layer="svg2" />
  <g
     style="fill:#a98bc7"
     id="g4"
     transform="matrix(1.0004338,0,0,1.0004737,0.15964073,0.15851494)">
    <path
       d="m 15.472656,3.464844 c -7.324218,0 -12.675781,5.648437 -11.941406,12.582031 0.621094,5.847656 5.367188,10.757813 11.230469,12.15625 -1,-1.636719 -1.648438,-3.480469 -1.855469,-5.417969 -0.734375,-6.933594 4.621094,-12.53125 11.945312,-12.53125 1.152344,0 2.253907,0.144532 3.351563,0.402344 C 25.621094,6.421875 20.757812,3.464844 15.472656,3.464844 Z m 0,2.59375 c 2.292969,0 4.503906,0.710937 6.402344,1.882812 -7.144531,1.382813 -12.28125,7.695313 -11.535156,15.078125 -2.277344,-1.890625 -3.945313,-4.4375 -4.242188,-7.25 -0.578125,-5.476562 3.378906,-9.710937 9.375,-9.710937 z"
       id="path6"
       inkscape:connector-curvature="0" />
    <path
       d="m 9.386719,8.152344 c 1.292969,0 2.339843,1.253906 2.339843,2.808594 l 0,9.949218 c 0,1.554688 -1.046874,2.8125 -2.339843,2.8125 -1.289063,0 -2.339844,-1.257812 -2.339844,-2.8125 l 0,-9.949218 c 0,-1.554688 1.050781,-2.808594 2.339844,-2.808594 z"
       id="path8"
       inkscape:connector-curvature="0" />
    <path
       d="m 7.847656,9.878906 c 1.257813,0 2.277344,1.261719 2.277344,2.8125 l 0,5.335938 c 0,1.554687 -1.019531,2.808594 -2.277344,2.808594 -1.257812,0 -2.273437,-1.253907 -2.273437,-2.808594 l 0,-5.335938 c 0,-1.550781 1.015625,-2.8125 2.273437,-2.8125 z"
       id="path10"
       inkscape:connector-curvature="0" />
    <path
       d="m 10.796875,6.867188 c 1.292969,0 2.339844,1.261718 2.339844,2.808593 l 0,3.867188 c 0,1.550781 -1.046875,2.8125 -2.339844,2.8125 -1.292969,0 -2.339844,-1.261719 -2.339844,-2.8125 l 0,-3.867188 c 0,-1.546875 1.046875,-2.808593 2.339844,-2.808593 z"
       id="path12"
       inkscape:connector-curvature="0" />
    <path
       d="m 11.90625,4.625 3.355469,0 c 1.546875,0 2.808593,1.261719 2.808593,2.8125 l 0,2.066406 c 0,1.554688 -1.261718,2.8125 -2.808593,2.8125 l -3.355469,0 c -1.546875,0 -2.808594,-1.257812 -2.808594,-2.8125 l 0,-2.066406 c 0,-1.550781 1.261719,-2.8125 2.808594,-2.8125 z"
       id="path14"
       inkscape:connector-curvature="0" />
    <path
       d="m 13.230469,9.242188 c 0.902343,0 1.636719,1.214843 1.636719,2.722656 0,1.5 -0.734376,2.722656 -1.636719,2.722656 -0.902344,0 -1.632813,-1.222656 -1.632813,-2.722656 0,-1.507813 0.730469,-2.722656 1.632813,-2.722656 z"
       id="path16"
       inkscape:connector-curvature="0" />
    <path
       d="m 18.636719,5.84375 0.53125,0 c 1.550781,0 2.8125,0.890625 2.8125,1.988281 0,1.097657 -1.261719,1.984375 -2.8125,1.984375 l -0.53125,0 c -1.554688,0 -2.808594,-0.886718 -2.808594,-1.984375 0,-1.097656 1.253906,-1.988281 2.808594,-1.988281 z"
       id="path18"
       inkscape:connector-curvature="0" />
  </g>
</svg>

<svg width="32" xmlns="http://www.w3.org/2000/svg" height="32" viewBox="0 0 32 32" xmlns:xlink="http://www.w3.org/1999/xlink">
<g style="fill:#a98bc7">
<path d="M 15.472656 3.464844 C 8.148438 3.464844 2.796875 9.113281 3.53125 16.046875 C 4.152344 21.894531 8.898438 26.804688 14.761719 28.203125 C 13.761719 26.566406 13.113281 24.722656 12.90625 22.785156 C 12.171875 15.851562 17.527344 10.253906 24.851562 10.253906 C 26.003906 10.253906 27.105469 10.398438 28.203125 10.65625 C 25.621094 6.421875 20.757812 3.464844 15.472656 3.464844 Z M 15.472656 6.058594 C 17.765625 6.058594 19.976562 6.769531 21.875 7.941406 C 14.730469 9.324219 9.59375 15.636719 10.339844 23.019531 C 8.0625 21.128906 6.394531 18.582031 6.097656 15.769531 C 5.519531 10.292969 9.476562 6.058594 15.472656 6.058594 Z "/>
<path d="M 9.386719 8.152344 C 10.679688 8.152344 11.726562 9.40625 11.726562 10.960938 L 11.726562 20.910156 C 11.726562 22.464844 10.679688 23.722656 9.386719 23.722656 C 8.097656 23.722656 7.046875 22.464844 7.046875 20.910156 L 7.046875 10.960938 C 7.046875 9.40625 8.097656 8.152344 9.386719 8.152344 Z "/>
<path d="M 7.847656 9.878906 C 9.105469 9.878906 10.125 11.140625 10.125 12.691406 L 10.125 18.027344 C 10.125 19.582031 9.105469 20.835938 7.847656 20.835938 C 6.589844 20.835938 5.574219 19.582031 5.574219 18.027344 L 5.574219 12.691406 C 5.574219 11.140625 6.589844 9.878906 7.847656 9.878906 Z "/>
<path d="M 10.796875 6.867188 C 12.089844 6.867188 13.136719 8.128906 13.136719 9.675781 L 13.136719 13.542969 C 13.136719 15.09375 12.089844 16.355469 10.796875 16.355469 C 9.503906 16.355469 8.457031 15.09375 8.457031 13.542969 L 8.457031 9.675781 C 8.457031 8.128906 9.503906 6.867188 10.796875 6.867188 Z "/>
<path d="M 11.90625 4.625 L 15.261719 4.625 C 16.808594 4.625 18.070312 5.886719 18.070312 7.4375 L 18.070312 9.503906 C 18.070312 11.058594 16.808594 12.316406 15.261719 12.316406 L 11.90625 12.316406 C 10.359375 12.316406 9.097656 11.058594 9.097656 9.503906 L 9.097656 7.4375 C 9.097656 5.886719 10.359375 4.625 11.90625 4.625 Z "/>
<path d="M 13.230469 9.242188 C 14.132812 9.242188 14.867188 10.457031 14.867188 11.964844 C 14.867188 13.464844 14.132812 14.6875 13.230469 14.6875 C 12.328125 14.6875 11.597656 13.464844 11.597656 11.964844 C 11.597656 10.457031 12.328125 9.242188 13.230469 9.242188 Z "/>
<path d="M 18.636719 5.84375 L 19.167969 5.84375 C 20.71875 5.84375 21.980469 6.734375 21.980469 7.832031 C 21.980469 8.929688 20.71875 9.816406 19.167969 9.816406 L 18.636719 9.816406 C 17.082031 9.816406 15.828125 8.929688 15.828125 7.832031 C 15.828125 6.734375 17.082031 5.84375 18.636719 5.84375 Z "/>
</g>
</svg>
